X:3
T:Soldier's Joy (#001)
C:Traditional Fiddle Tune
M:4/4
L:1/8
K:D
P:PART A
|:"D"AF DF AF DF|A2 d2 d2 cB|AF DF AF DF|"A7"G2 E2 E2 FG
|"D"AF DF AF DF|A2 d2 d2 de|fa fd "A7"eg ec|"D"d2 d2 d4:|
P:PART B
|:"D"f2 fg a2 f2|"A"e2 ef g2 e2|"D"f2 fg a2 f2|"A"ed cB A4
|"D"f2 fg a2 f2|"A"e2 ef g2 e2|"D"fa fd "A7"eg ec|"D"d2 d2 d4:||

%Boil Them Cabbage Down - 002
%%scale .97
